X:59
T:Crowley's No. 2
Z: id:dc-reel-53
M:C
L:1/8
K:D Major
f2ed edBc|dBcA BAFA|B3d AFDF|GEFD EDB,e|!
fdd2 ecc2|dBcA BAFA|B3d AFDF|GBAG FDD|]!
A|d2dA dAFA|B3d cAAd|BdAd GdFd|EFGE FDD:|!

